!! 00000] TT[00
!! NN
!!!OTL: Xiao nÅxu
!!!ARE: Asia, China,ˇHubei, Tianmen
!! Ethnic Group: Han
!! I, 430
!!!SCT: C0110
!!!YEM: Copyright 1995, estate of Helmut Schaffrath.
**kern
*ICvox
*Ivox
*M2/4
*k[f#c#]
*D:
{16dd
16ee
16a
16a
16dd
16ee
8a
=1
16dd
16ee
8dd
4a}
=2
{8a
8dd
16dd
16ee
8a
=3
16dd
16ee
8dd
4a}
=4
{16f#
16a
16a
16a
16g
16a
8a
=5
16a
16dd
16g
16a
8a
16f#
16a
=6
16a
16b
16a
16f#
4d}
=7
{16f#
16a
16f#
16a
16f#
16a
16a
16b
=8
16a
16dd
16a
16f#
4d}
=9
{16dd
16ee
16a
16a
8dd
16ee
16dd
=10
16dd
16ee
8dd
8.a}
{16dd
=11
16dd
16ee
8dd
16dd
16ee
8a
=12
16dd
16ee
8dd
4a}
=13
{16f#
16a
16a
16a
16f#
16a
16a
16f#
=14
16f#
16a
16f#
16a
16a
16a
16f#
16a
=15
16a
16b
16a
16f#
8.d}
{16dd
=16
16f#
8a
16a
8f#
8f#
=17
16a
16b
16a
16f#
4d}
=18
{16b
16dd
16ee
16dd
8dd
16ee
16dd
=19
16dd
16ee
8dd
4a}
=20
{8a
16ccn
16dd
16dd
16ccn
16a
16ccn
=21
16dd
16ee
8dd
8.a}
{16dd
=22
16f#
8a
16a
8f#
8a
=23
16f#
8d
16a
16a
16g
16f#
16a
=24
16a
16b
16a
16f#
4d}
=25
{8f#
16a
16dd
16f#
16a
16f#
16a
=26
16a
16b
16a
16f#
4d}
=27
{8dd
16dd
16ee
8dd
8a
=28
16ee
16dd
8dd
4a}
=29
{4ee
12dd
12ee
12dd
2.b
=30
4b}
{16f#
16a
8a
16a
16b
16a
16g
=31
16f#
16a
16f#
16a
16a
16a
16f#
16a
=32
16a
16b
16a
16f#
8.d}
{16dd
=33
8.a
16a
16a
16dd
8g
=34
16a
16b
16a
16f#
4d}
=35
{16b
16dd
16dd
16dd
8dd
16ee
16dd
=36
16dd
16ee
8dd
8.a}
{16dd
=37
8a
16dd
16dd
16ccn
16dd
16dd
16ee
=38
8dd
16ccn
16dd
4a}
=39
{8f#
16a
16a
16a
16dd
16a
16g
=40
16a
16dd
16f#
16a
16f#
16f#
16f#
16a
=41
16a
16b
16a
16f#
4d}
=42
{16f#
16a
16a
16a
16a
16dd
8f#
=43
8f#
16a
16f#
4d}
==
!!!AGN: Shange, Tiange, Haocaoge. FunÅ suku
!! aufgeschrieben im Modus Zhi. Soll aber Gong sein. Endet S. 431
!!    oben 1. Takt. ?? Handschriftlich in die Noten eingetragene Form:
!!    a-a1-b-a2-a3.
!!!ONB: ESAC (Essen Associative Code) Database: CHINA
!!!AMT: simple duple
!!!AIN: vox
!!!EED: Helmut Schaffrath
!!!EEV: 1.0
*-
